!!!OTL: "Kuhreigen" Z' BASEL IS GAR GRUEELI LUSTI
!!!ARE: Europa, Mitteleuropa, Schweiz, Basel
!!!SCT: Z1307
!!!YEM: Copyright 1995, estate of Helmut Schaffrath.
**kern
*ICvox
*Ivox
*M6/8
*k[b-]
*F:
{4f
8a
4cc
8dd
=1
4cc
8b-
4a
8f}
=2
{8f
8a
8b-
4cc
8dd
=3
8cc
8b-
8a
4a
8g}
=4
{8g
8a
8bn
4cc
8ee
=5
8bn
8a
8bn
4.cc}
=6
{8cc
8ee
8ff
8gg
8aa
8gg
=7
8ff
8a
8bn
4cc}
{8ee
=8
8dd
8a
8bn
4cc
8ee
=9
8dd
8a
8bn
4.cc}
==
!!!AGN: Handwerker -, Bauern - Lied
!!!ONB: ESAC (Essen Associative Code) Database: ZUCCAL
!!!AMT: compound duple
!!!AIN: vox
!!!EED: Helmut Schaffrath
!!!EEV: 1.0
*-
